projects/elonkit/src/assets/elonkit/empty-state/search.svg

<svg width="56" height="56" viewBox="0 0 56 56" fill="none" xmlns="http://www.w3.org/2000/svg">
  <path fill-rule="evenodd" clip-rule="evenodd"
    d="M25 5C20.4061 5 16.1738 6.54902 12.7971 9.15321C15.5203 7.17005 18.8735 6 22.5 6C31.6124 6 39 13.3876 39 22.5C39 31.6124 31.6124 39 22.5 39C13.3876 39 6 31.6124 6 22.5C6 18.8735 7.17005 15.5203 9.15321 12.7971C6.54902 16.1738 5 20.4061 5 25C5 36.0453 13.9547 45 25 45C36.0453 45 45 36.0453 45 25C45 13.9547 36.0453 5 25 5ZM53.3691 53.3692C54.1976 52.5408 54.1976 51.1976 53.3691 50.3692L47.4265 44.4265C46.5981 43.5981 45.2549 43.5981 44.4265 44.4265C43.5981 45.255 43.5981 46.5981 44.4265 47.4265L50.3691 53.3692C51.1976 54.1976 52.5407 54.1976 53.3691 53.3692Z"
    data-mono-a="A50" />
  <path fill-rule="evenodd" clip-rule="evenodd"
    d="M25 3C12.8501 3 3 12.8501 3 25C3 37.1499 12.8501 47 25 47C30.7152 47 35.9216 44.8205 39.8332 41.2473L42.3914 43.8055C41.4394 45.3894 41.6463 47.4751 43.012 48.8408L48.9546 54.7834C50.5641 56.3929 53.1736 56.3929 54.7831 54.7834C56.3925 53.1739 56.3925 50.5645 54.7831 48.955L48.8404 43.0123C47.4749 41.6468 45.3895 41.4398 43.8057 42.3914L41.2474 39.8331C44.8205 35.9215 47 30.7152 47 25C47 12.8501 37.1499 3 25 3ZM25 5C13.9547 5 5 13.9547 5 25C5 36.0453 13.9547 45 25 45C36.0453 45 45 36.0453 45 25C45 13.9547 36.0453 5 25 5ZM53.3688 53.3692C54.1973 52.5408 54.1973 51.1976 53.3688 50.3692L47.4262 44.4265C46.5978 43.5981 45.2546 43.5981 44.4262 44.4265C43.5978 45.255 43.5978 46.5981 44.4262 47.4265L50.3688 53.3692C51.1973 54.1976 52.5404 54.1976 53.3688 53.3692ZM22.162 16.8406C22.9219 16.316 23.8935 16 25.101 16C26.3393 16 27.3852 16.379 28.1936 17.0392C28.9934 17.6924 29.5086 18.5774 29.7752 19.516C30.2992 21.3612 29.9067 23.5762 28.5891 25.0888C26.4739 27.517 26.1476 28.3816 25.9796 29.2009C25.8687 29.7419 25.3402 30.0906 24.7991 29.9796C24.2581 29.8687 23.9094 29.3402 24.0204 28.7991C24.2926 27.4717 24.8907 26.2896 27.081 23.7751C27.9161 22.8164 28.2071 21.3154 27.8513 20.0624C27.6779 19.4519 27.3622 18.9424 26.9285 18.5882C26.5035 18.2411 25.9133 18 25.101 18C24.2581 18 23.6917 18.2149 23.2983 18.4865C22.8968 18.7637 22.6135 19.1432 22.4132 19.5582C22.2113 19.9764 22.1053 20.4071 22.0514 20.7422C22.0248 20.9072 22.0119 21.0427 22.0056 21.1332C22.0025 21.1782 22.0011 21.2116 22.0005 21.2313L22 21.2502L22 21.2511C21.9977 21.8014 21.5509 22.2468 21 22.2468C20.4477 22.2468 20 21.7991 20 21.2468H21C20 21.2468 20 21.2463 20 21.2458V21.2447L20 21.2422L20 21.2361L20.0002 21.2191C20.0005 21.2057 20.0008 21.1882 20.0015 21.167C20.0029 21.1245 20.0055 21.0666 20.0104 20.9955C20.0202 20.8537 20.0393 20.6574 20.0768 20.4244C20.151 19.9631 20.3014 19.3322 20.6121 18.6886C20.9243 18.0419 21.4101 17.3597 22.162 16.8406ZM26 33C26 33.5523 25.5523 34 25 34C24.4477 34 24 33.5523 24 33C24 32.4477 24.4477 32 25 32C25.5523 32 26 32.4477 26 33Z"
    data-mono-a="A400" />
</svg>

<svg width="56" height="56" fill="none" xmlns="http://www.w3.org/2000/svg"><path fill-rule="evenodd" clip-rule="evenodd" d="M25 5a19.913 19.913 0 00-12.203 4.153A16.425 16.425 0 0122.5 6C31.612 6 39 13.388 39 22.5S31.612 39 22.5 39 6 31.612 6 22.5c0-3.627 1.17-6.98 3.153-9.703A19.913 19.913 0 005 25c0 11.045 8.955 20 20 20s20-8.955 20-20S36.045 5 25 5zm28.37 48.37a2.121 2.121 0 000-3l-5.944-5.944a2.121 2.121 0 00-3 3l5.943 5.943a2.121 2.121 0 003 0z" fill="#000" fill-opacity=".04"/><path fill-rule="evenodd" clip-rule="evenodd" d="M25 3C12.85 3 3 12.85 3 25s9.85 22 22 22a21.92 21.92 0 0014.833-5.753l2.558 2.559a4.123 4.123 0 00.621 5.035l5.943 5.942a4.121 4.121 0 005.828-5.828l-5.943-5.943a4.123 4.123 0 00-5.034-.62l-2.559-2.559A21.92 21.92 0 0047 25c0-12.15-9.85-22-22-22zm0 2C13.955 5 5 13.955 5 25s8.955 20 20 20 20-8.955 20-20S36.045 5 25 5zm28.369 48.37a2.121 2.121 0 000-3l-5.943-5.944a2.121 2.121 0 00-3 3l5.943 5.943a2.121 2.121 0 003 0zM22.162 16.84c.76-.524 1.732-.84 2.939-.84 1.238 0 2.284.379 3.093 1.04.8.652 1.315 1.537 1.581 2.476.524 1.845.132 4.06-1.186 5.573-2.115 2.428-2.441 3.293-2.61 4.112a1 1 0 11-1.959-.402c.273-1.327.87-2.51 3.061-5.024.835-.959 1.126-2.46.77-3.713-.173-.61-.489-1.12-.922-1.474-.425-.347-1.016-.588-1.828-.588-.843 0-1.41.215-1.803.486-.401.278-.684.657-.885 1.072a4.355 4.355 0 00-.362 1.184 4.401 4.401 0 00-.05.49L22 21.25v.001a1 1 0 01-2-.004h1l-1-.001V21.219c0-.013 0-.03.002-.052 0-.043.004-.1.008-.172.01-.141.03-.338.067-.57a6.352 6.352 0 01.535-1.736c.312-.647.798-1.33 1.55-1.848zM26 33a1 1 0 11-2 0 1 1 0 012 0z" fill="#000" fill-opacity=".22"/></svg>
